tools/download-figma-icons/icons/outlined-large/townhall-alt.svg

<svg width="64" height="64" viewBox="0 0 64 64" fill="none" xmlns="http://www.w3.org/2000/svg">
<path fill-rule="evenodd" clip-rule="evenodd" d="M4.60729 3.44291C4.83509 2.87343 5.38665 2.5 6.00001 2.5H34C34.6134 2.5 35.1649 2.87343 35.3927 3.44291L39.3927 13.4429C39.5776 13.9051 39.5212 14.4288 39.2421 14.8409C38.9631 15.2531 38.4977 15.5 38 15.5H35.5V22.5H58C58.6457 22.5 59.2189 22.9131 59.423 23.5257L63.423 35.5257C63.5755 35.9831 63.4988 36.4859 63.2169 36.8771C62.9349 37.2682 62.4822 37.5 62 37.5H59.5V60C59.5 60.8284 58.8284 61.5 58 61.5H34H26H14H6.00001C5.60218 61.5 5.22065 61.342 4.93935 61.0607C4.65804 60.7794 4.50001 60.3978 4.50001 60V15.5H2.00001C1.50227 15.5 1.03695 15.2531 0.757906 14.8409C0.478861 14.4288 0.422438 13.9051 0.607292 13.4429L4.60729 3.44291ZM56.5 37.5H51H44H37H35.5L35.5 37.5774L35.5 58.5H56.5V37.5ZM35.5 34.5H37H44H51H58H59.9189L56.9189 25.5H35.5V34.5ZM32.5 24V15.5H27C26.739 15.5 26.4824 15.4319 26.2558 15.3024L20 11.7276L13.7442 15.3024C13.5317 15.4238 13.293 15.4912 13.0489 15.4992C13.0326 15.4997 13.0163 15.5 13 15.5H7.50001V58.5H12.5V47.7647C12.5 47.2485 12.7655 46.7685 13.2028 46.4941L19.2028 42.7294C19.6903 42.4235 20.3098 42.4235 20.7972 42.7294L26.7972 46.4941C27.2345 46.7685 27.5 47.2485 27.5 47.7647V58.5H32.5L32.5 36L32.5 35.9952V24ZM35.7845 12.5H34H27.3984L20.7442 8.69764C20.6866 8.6647 20.6273 8.63587 20.5668 8.61117C20.1432 8.43824 19.6593 8.46706 19.2558 8.69764L12.6017 12.5H6.00001H4.21556L7.01556 5.5H32.9845L35.7845 12.5ZM24.5 58.5V48.5944L20 45.7708L15.5 48.5944V58.5H24.5ZM20 21.5C16.4102 21.5 13.5 24.4101 13.5 28C13.5 31.5899 16.4102 34.5 20 34.5C23.5899 34.5 26.5 31.5899 26.5 28C26.5 24.4101 23.5899 21.5 20 21.5ZM10.5 28C10.5 22.7533 14.7533 18.5 20 18.5C25.2467 18.5 29.5 22.7533 29.5 28C29.5 33.2467 25.2467 37.5 20 37.5C14.7533 37.5 10.5 33.2467 10.5 28ZM21.5 25.334C21.5 24.5056 20.8284 23.834 20 23.834C19.1716 23.834 18.5 24.5056 18.5 25.334V28.0007C18.5 28.8291 19.1716 29.5007 20 29.5007H22.6667C23.4951 29.5007 24.1667 28.8291 24.1667 28.0007C24.1667 27.1722 23.4951 26.5007 22.6667 26.5007H21.5V25.334ZM51.5 44C51.5 44.8284 50.8284 45.5 50 45.5H42C41.1716 45.5 40.5 44.8284 40.5 44C40.5 43.1716 41.1716 42.5 42 42.5H50C50.8284 42.5 51.5 43.1716 51.5 44ZM50 53.5C50.8284 53.5 51.5 52.8284 51.5 52C51.5 51.1716 50.8284 50.5 50 50.5H42C41.1716 50.5 40.5 51.1716 40.5 52C40.5 52.8284 41.1716 53.5 42 53.5H50Z" fill="black"/>
</svg>

<svg xmlns="http://www.w3.org/2000/svg" width="64" height="64" fill="none" viewBox="0 0 64 64"><path fill="currentColor" fill-rule="evenodd" d="M4.607 3.443A1.5 1.5 0 0 1 6 2.5h28a1.5 1.5 0 0 1 1.393.943l4 10A1.5 1.5 0 0 1 38 15.5h-2.5v7H58a1.5 1.5 0 0 1 1.423 1.026l4 12A1.5 1.5 0 0 1 62 37.5h-2.5V60a1.5 1.5 0 0 1-1.5 1.5H6A1.5 1.5 0 0 1 4.5 60V15.5H2a1.5 1.5 0 0 1-1.393-2.057zM56.5 37.5h-21v21h21zm-21-3h24.419l-3-9H35.5zm-3-10.5v-8.5H27a1.5 1.5 0 0 1-.744-.198L20 11.728l-6.256 3.574A1.5 1.5 0 0 1 13 15.5H7.5v43h5V47.765a1.5 1.5 0 0 1 .703-1.27l6-3.766a1.5 1.5 0 0 1 1.594 0l6 3.765a1.5 1.5 0 0 1 .703 1.27V58.5h5zm3.285-11.5h-8.387l-6.654-3.802a1.5 1.5 0 0 0-1.488 0L12.602 12.5H4.216l2.8-7h25.968zM24.5 58.5v-9.906L20 45.771l-4.5 2.823V58.5zm-4.5-37a6.5 6.5 0 1 0 0 13 6.5 6.5 0 0 0 0-13M10.5 28a9.5 9.5 0 1 1 19 0 9.5 9.5 0 0 1-19 0m11-2.666a1.5 1.5 0 0 0-3 0v2.667a1.5 1.5 0 0 0 1.5 1.5h2.667a1.5 1.5 0 0 0 0-3H21.5zM51.5 44a1.5 1.5 0 0 1-1.5 1.5h-8a1.5 1.5 0 0 1 0-3h8a1.5 1.5 0 0 1 1.5 1.5M50 53.5a1.5 1.5 0 0 0 0-3h-8a1.5 1.5 0 0 0 0 3z" clip-rule="evenodd"/></svg>
